X: 4462
T: Bonnie Kate
R: reel
M: 4/4
K: Dmajor
{d}A2.dA (3B.c.d AF|{A}D.FAF {A}G.F.E.A|D.FAD G.B{g}.ed|c.ABc {e}dcdB|
A~.F3 d~.F3|{A}D.FAF {A}GFE.A|{B}AD.FA G.B{g}.ed|c.ABc {e}d3c|
{d}cB{c}BA (3B.c.d AF|{A}FE{F}E D E.AFE|D.FAD G.B{g}.ed|c.ABc {e}dcdB|
{c}AFAd .(3g.f.e (3d.c.B|{c}AG{FG}FD E.AFE|~D2{c}AF G.B{g}.ed|c.ABc d.e.f.g||
a2fd Ad.fa|g.f.eA (3B.c.d .e.f|{a}g.f.ed c.ea.g|.fa{ga}ge dA (3.e.f.g|
az{g}.fd Ad.fa|g.f.eA (3B.c.d .e.f|{a}g.f.{g}ed c.ea.g|fage d2(3.e.f.g|
ad.fd Ad.fa|g.f.eA (3B.c.d .e.f|{a}g.f.ed c.ea.g|.fa{ga}ge dA (3.e.f.g|
ad{g}ed Ad.fa|g.f.eA (3B.c.d .e.f|~g3f g.eag|fage d4||

